img/brand/dunkin.svg

<svg width="141" height="25" viewBox="0 0 141 25" fill="none" xmlns="http://www.w3.org/2000/svg">
<path fill-rule="evenodd" clip-rule="evenodd" d="M56.9573 13.8176C56.8696 13.9473 56.9133 14.0987 56.9133 14.2284V20.4992C56.9133 21.0831 56.8473 21.6453 56.6719 22.2075C56.1452 24.0022 54.6085 25.0833 52.6986 24.9536C50.3498 24.8022 49.0106 23.3967 48.8569 20.9534C48.8349 20.7156 48.8349 20.4562 48.8349 20.2181V4.08712C48.8349 2.40047 49.4714 1.0816 51.096 0.432713C52.7643 -0.237559 54.3449 0.000212588 55.7058 1.21104C56.4523 1.85964 56.979 2.72464 57.5718 3.50296C59.3938 5.94627 61.3255 8.32486 63.0378 10.8548C63.2135 11.1143 63.3672 11.3737 63.6306 11.6118V4.49767C63.6306 3.56796 63.7843 2.6813 64.267 1.88131C65.1452 0.411045 66.5281 -0.0647829 68.1524 0.108271C70.0621 0.281325 71.3354 1.55715 71.5988 3.45991C71.6648 3.8924 71.6865 4.3249 71.6865 4.7574V20.9314C71.6865 22.5964 71.0937 23.9153 69.5131 24.6072C67.8228 25.3208 66.1985 25.0614 64.8153 23.8289C63.9591 23.072 63.3226 22.0989 62.5982 21.1909C60.6885 18.7906 58.6468 16.477 57.0225 13.8606C57.0225 13.839 57.0005 13.839 56.9565 13.8173L56.9573 13.8176ZM116.162 13.8609V14.3151C116.162 16.5856 116.14 18.8342 116.118 21.1048C116.118 21.7534 115.92 22.3589 115.635 22.9211C114.954 24.2833 113.505 25.0619 111.903 24.9319C109.62 24.7589 108.259 23.3533 108.105 21.0614L108.083 20.6723C108.083 15.007 108.061 9.3418 108.083 3.67657C108.083 2.2277 108.786 1.12493 110.103 0.49799C111.596 -0.193948 113.045 -0.0858948 114.449 0.800764C114.867 1.06021 115.218 1.40631 115.503 1.77381C117.72 4.71462 120.003 7.59043 122.111 10.6176C122.352 10.9637 122.572 11.3096 122.857 11.7637V4.36851C122.857 3.28741 123.099 2.24936 123.823 1.38465C124.899 0.108823 126.348 -0.107285 127.884 0.173824C129.333 0.454933 130.233 1.40631 130.65 2.76852C130.848 3.41713 130.892 4.06601 130.892 4.73629V20.9536C130.892 22.597 130.277 23.9161 128.718 24.5864C127.094 25.2783 125.535 25.0622 124.152 23.9378C123.933 23.7647 123.713 23.5486 123.537 23.3322C121.342 20.5428 118.993 17.8614 116.952 14.964C116.688 14.5965 116.447 14.2287 116.205 13.8612C116.227 13.8395 116.205 13.8395 116.161 13.8612L116.162 13.8609ZM97.305 12.4771C97.305 9.6443 97.283 6.83349 97.305 4.00073C97.327 2.35741 98.0295 1.08159 99.5881 0.432988C101.191 -0.237284 102.749 -0.0642313 104.088 1.10326C104.9 1.7952 105.317 2.74658 105.317 3.78462C105.339 9.60124 105.361 15.3962 105.317 21.2128C105.295 23.3967 103.473 25.0186 101.278 24.9536C98.9733 24.8886 97.327 23.3103 97.305 21.0831C97.283 18.2073 97.305 15.3529 97.305 12.4771ZM46.113 10.2282C46.091 11.7851 46.179 13.7312 46.069 15.6556C45.8056 20.4345 42.1836 24.2183 37.3541 24.8239C35.2027 25.0833 33.1173 24.9753 31.0976 24.1536C27.4976 22.7047 25.5219 20.002 24.9732 16.2612C24.9072 15.7854 24.8855 15.2881 24.8635 14.7909C24.8635 11.2232 24.8415 7.67682 24.8635 4.10907C24.8855 1.73048 26.5758 0.0438254 28.9026 0.0654919C31.2513 0.0871584 32.9196 1.77381 32.9196 4.19546V14.2718C32.9196 15.3962 33.3147 16.3042 34.3686 16.8234C36.0149 17.6451 37.8589 16.499 38.0346 14.6179C38.0566 14.3801 38.0566 14.1206 38.0566 13.8826V4.06574C38.0566 1.92492 39.5275 0.303268 41.6566 0.0871592C43.764 -0.12895 45.564 1.14659 46.003 3.20102C46.069 3.52546 46.0907 3.84963 46.0907 4.19573C46.1127 6.07683 46.1127 7.9582 46.1127 10.2285L46.113 10.2282ZM82.5093 7.52543C83.9583 5.68739 85.4509 3.93602 86.8558 2.11964C87.668 1.0816 88.6338 0.346599 89.995 0.195212C92.3658 -0.0425641 94.6489 2.11964 94.4732 4.4549C94.3855 5.536 93.9464 6.44432 93.2659 7.26598C91.883 8.88764 90.4781 10.4879 89.0732 12.0879C88.8755 12.3257 88.8755 12.4554 89.0732 12.6718C90.5878 14.3151 92.0587 16.0017 93.5513 17.6451C94.3635 18.5531 94.8246 19.5695 94.7806 20.7803C94.6929 23.375 92.0367 25.3861 89.5999 24.6725C88.7658 24.4347 88.0853 23.9372 87.5366 23.267C85.9559 21.3642 84.3316 19.4828 82.795 17.5367C82.729 17.4503 82.6633 17.3637 82.5756 17.2556C82.4219 17.342 82.4879 17.4717 82.4879 17.5584C82.4879 18.7045 82.5099 19.8289 82.4659 20.9748C82.3999 23.2883 80.7316 24.9103 78.4488 24.8886C76.1438 24.8886 74.4317 23.267 74.4317 20.9748C74.4097 15.2879 74.4097 9.5793 74.4317 3.8924C74.4537 1.60048 76.188 -0.021452 78.4708 0.000214491C80.7539 0.021881 82.4002 1.6002 82.4662 3.8924C82.5322 5.14656 82.5102 6.33571 82.5102 7.52515L82.5093 7.52543ZM7.89469 0.562708C9.32161 0.584374 10.9459 0.454654 12.5485 0.75743C17.0047 1.57909 20.4293 3.78463 21.9879 8.08765C23.5905 12.5204 23.0635 16.737 19.8805 20.4128C17.9268 22.6833 15.2927 23.8725 12.3511 24.2833C9.62899 24.6725 6.88513 24.4131 4.16299 24.4564C4.03129 24.4564 3.8996 24.4131 3.7679 24.3914C1.61653 24.0239 0.123901 22.2939 0.123901 20.1534V4.88739C0.123901 2.48714 1.98989 0.606041 4.44837 0.562708C5.52392 0.541041 6.62174 0.562708 7.89469 0.562708ZM8.18008 12.5204V16.4559C8.18008 16.6506 8.15808 16.8234 8.46546 16.8234C9.32161 16.8017 10.1558 16.8667 11.0119 16.7584C13.251 16.499 14.7436 14.834 14.7656 12.5418C14.7876 10.2929 13.2947 8.5632 11.0556 8.28209C10.2215 8.17403 9.38732 8.26042 8.55316 8.21709C8.24578 8.19542 8.15808 8.30347 8.15808 8.60625C8.18008 9.90374 8.18008 11.2226 8.18008 12.5201V12.5204Z" fill="#FE6D01"/>
<path fill-rule="evenodd" clip-rule="evenodd" d="M133.349 5.7954C133.327 4.82235 133.349 3.87097 133.569 2.91958C134.008 0.930157 135.698 -0.194276 137.784 0.130166C139.781 0.432941 141.054 2.05459 140.857 4.04402C140.681 5.68734 140.22 7.26594 139.562 8.77954C139.166 9.66619 138.574 10.3795 137.608 10.704C136.027 11.2228 134.381 10.4662 133.788 8.90926C133.393 7.91454 133.371 6.85511 133.349 5.7954H133.349Z" fill="#F40290"/>
</svg>

<svg width="141" height="25" viewBox="0 0 141 25" fill="none" xmlns="http://www.w3.org/2000/svg"><path fill-rule="evenodd" clip-rule="evenodd" d="M56.957 13.818c-.087.13-.044.28-.044.41V20.5c0 .584-.066 1.146-.241 1.709-.527 1.794-2.063 2.875-3.973 2.746-2.35-.152-3.688-1.557-3.842-4-.022-.238-.022-.498-.022-.736V4.088c0-1.688.636-3.006 2.261-3.655 1.668-.67 3.249-.433 4.61.778.746.649 1.273 1.514 1.866 2.292 1.822 2.443 3.753 4.822 5.466 7.352.176.26.33.519.593.757V4.498c0-.93.153-1.817.636-2.617.878-1.47 2.261-1.946 3.885-1.773 1.91.173 3.183 1.45 3.447 3.352.066.432.087.865.087 1.297v16.174c0 1.665-.592 2.984-2.173 3.676-1.69.714-3.315.454-4.698-.778-.856-.757-1.492-1.73-2.217-2.638-1.91-2.4-3.951-4.714-5.575-7.33 0-.022-.023-.022-.067-.044h.001zm59.205.043v.454c0 2.27-.022 4.52-.044 6.79 0 .648-.198 1.254-.483 1.816-.681 1.362-2.13 2.14-3.732 2.01-2.283-.172-3.644-1.578-3.798-3.87l-.022-.389c0-5.665-.022-11.33 0-16.995 0-1.45.703-2.552 2.02-3.179 1.493-.692 2.942-.584 4.346.303.418.26.769.605 1.054.973 2.217 2.94 4.5 5.816 6.608 8.844.241.346.461.692.746 1.146V4.369c0-1.082.242-2.12.966-2.984 1.076-1.276 2.525-1.492 4.061-1.211 1.449.28 2.349 1.232 2.766 2.595.198.648.242 1.297.242 1.967v16.218c0 1.643-.615 2.962-2.174 3.632-1.624.692-3.183.476-4.566-.648a4.08 4.08 0 01-.615-.606c-2.195-2.79-4.544-5.47-6.585-8.368-.264-.367-.505-.735-.747-1.103.022-.022 0-.022-.044 0h.001zm-18.857-1.384c0-2.833-.022-5.644 0-8.476.022-1.644.724-2.92 2.283-3.568 1.603-.67 3.161-.497 4.5.67a3.452 3.452 0 011.229 2.682c.022 5.816.044 11.611 0 17.428-.022 2.184-1.844 3.806-4.039 3.74-2.305-.064-3.951-1.643-3.973-3.87-.022-2.876 0-5.73 0-8.606zm-51.192-2.249c-.022 1.557.066 3.503-.044 5.428-.263 4.778-3.885 8.562-8.715 9.168-2.151.26-4.237.151-6.256-.67-3.6-1.45-5.576-4.152-6.125-7.893-.066-.476-.087-.973-.11-1.47 0-3.568-.021-7.114 0-10.682.023-2.379 1.713-4.065 4.04-4.044 2.348.022 4.017 1.709 4.017 4.13v10.077c0 1.124.395 2.032 1.449 2.551 1.646.822 3.49-.324 3.666-2.205.022-.238.022-.497.022-.735V4.066c0-2.141 1.47-3.763 3.6-3.979 2.107-.216 3.907 1.06 4.346 3.114.066.324.088.649.088.995.022 1.88.022 3.762.022 6.033zm36.396-2.703c1.45-1.838 2.942-3.589 4.347-5.405.812-1.038 1.778-1.773 3.139-1.925 2.37-.238 4.654 1.925 4.478 4.26-.088 1.081-.527 1.99-1.207 2.811a441.683 441.683 0 01-4.193 4.822c-.197.238-.197.367 0 .584 1.515 1.643 2.986 3.33 4.478 4.973.813.908 1.274 1.925 1.23 3.135-.088 2.595-2.744 4.606-5.181 3.892-.834-.237-1.515-.735-2.063-1.405-1.581-1.903-3.205-3.784-4.742-5.73a9.662 9.662 0 00-.22-.281c-.153.086-.087.216-.087.302 0 1.146.022 2.27-.022 3.417-.066 2.313-1.734 3.935-4.017 3.914-2.305 0-4.017-1.622-4.017-3.914-.022-5.687-.022-11.396 0-17.083C74.454 1.6 76.188-.02 78.47 0c2.283.022 3.93 1.6 3.995 3.892.066 1.255.044 2.444.044 3.633zM7.895.563c1.427.021 3.05-.108 4.654.194 4.456.822 7.88 3.028 9.439 7.33 1.602 4.433 1.076 8.65-2.107 12.326-1.954 2.27-4.588 3.46-7.53 3.87-2.722.39-5.466.13-8.188.173-.132 0-.263-.043-.395-.065-2.151-.367-3.644-2.097-3.644-4.238V4.887c0-2.4 1.866-4.281 4.324-4.324 1.076-.022 2.174 0 3.447 0zM8.18 12.52v3.936c0 .195-.022.367.285.367.857-.021 1.69.044 2.547-.065 2.239-.259 3.732-1.924 3.754-4.216.022-2.25-1.471-3.979-3.71-4.26-.834-.108-1.669-.022-2.503-.065-.307-.022-.395.086-.395.39.022 1.297.022 2.616.022 3.913z" fill="#FE6D01"/><path fill-rule="evenodd" clip-rule="evenodd" d="M133.349 5.795c-.022-.973 0-1.924.22-2.875.439-1.99 2.129-3.114 4.215-2.79 1.997.303 3.27 1.925 3.073 3.914-.176 1.643-.637 3.222-1.295 4.736-.396.886-.988 1.6-1.954 1.924-1.581.519-3.227-.238-3.82-1.795-.395-.994-.417-2.054-.439-3.114z" fill="#F40290"/></svg>
